src/icons/brands/creativemail.svg

<svg fill="none" viewBox="0 0 258 258" xmlns="http://www.w3.org/2000/svg" xmlns:xlink="http://www.w3.org/1999/xlink"><clipPath id="a"><path d="m0 0h258v258h-258z"/></clipPath><g clip-path="url(#a)"><path d="m0 0h258v258h-258z" fill="#f2eff8"/><path d="m473.616 242.393c-187.531-139.112-521.7457-10.202-572.8063 11.128l-71.4847 12.057-151.325-77.903 48.275-259.675 846.677 14.8386c29.399 146.2219 50.69 410.8434-99.336 299.5544z" fill="#fff"/><path d="m516.537 189.11c-167.755-102.4766-564.7505-34.035-742.279 12.995l-35.258-296.105 801.661 14.8517c61.856 132.1179 143.631 370.7343-24.124 268.2583z" fill="#7a5cbd"/><path d="m57.1335 113.123 27.4095 59.498 164.457-59.498z" fill="#639"/><path d="m49.1116 121.813 34.0947 50.808 165.7937-59.498z" fill="#f68909"/><path d="m49.1114 121.813-40.1114 58.162 240-66.852z" fill="#ffd66d"/><path d="m57.1335 113.123 29.4151-40.1118 162.4514 40.1118z" fill="#d1b3ee"/></g></svg>

<svg viewBox="0 0 258 258" fill="none" xmlns="http://www.w3.org/2000/svg">
<g clip-path="url(#clip0)">
<rect width="258" height="258" fill="#F2EFF8"/>
<path d="M473.616 242.393C286.085 103.281 -48.1297 232.191 -99.1903 253.521L-170.675 265.578L-322 187.675L-273.725 -72L572.952 -57.1614C602.351 89.0605 623.642 353.682 473.616 242.393Z" fill="white"/>
<path d="M516.537 189.11C348.782 86.6334 -48.2135 155.075 -225.742 202.105L-261 -94L540.661 -79.1483C602.517 52.9696 684.292 291.586 516.537 189.11Z" fill="#7A5CBD"/>
<path d="M57.1335 113.123L84.543 172.621L249 113.123H57.1335Z" fill="#663399"/>
<path d="M49.1116 121.813L83.2063 172.621L249 113.123L49.1116 121.813Z" fill="#F68909"/>
<path d="M49.1114 121.813L9 179.975L249 113.123L49.1114 121.813Z" fill="#FFD66D"/>
<path d="M57.1335 113.123L86.5486 73.0112L249 113.123H57.1335Z" fill="#D1B3EE"/>
</g>
<defs>
<clipPath id="clip0">
<rect width="258" height="258" fill="white"/>
</clipPath>
</defs>
</svg>
